src/assets/1985.svg

<svg width="3236" height="3187" fill="none" xmlns="http://www.w3.org/2000/svg">
  <g filter="url(#filter0_d)">
    <path d="M1884.25 609.168c-60.5-60.23 114.87-189.638-91.27-248.103C1517.93 283.057 732.227 0 732.227 0L25 1330.38s195.583 221.87 262.318 294.96c66.734 73.1 632.901 332.64 740.822 374.3 107.91 41.66 95.24-4.9 106.28 9.8 11.04 14.7-26.98 62.49-11.04 100.47 15.94 37.99 239.66 208.07 388.07 275.49 148.42 67.42-170.24 620.73 425.96 715.75 596.19 95.03 522.02-410.62 564.59-485.06 42.57-74.44 171.54 39.33 238.27 0 66.73-39.33 57.79-190.06 135.17-245.37s101.61-29.08 205.38-63.82c103.77-34.75 150.85-259.06 121.66-311.41-29.2-52.36-111.18-141.04-126.51-170.82-15.06-29.26-21.96-47.56-39.41-93.89l-.97-2.56c-18.17-48.22 22.51-95.86 63.93-181.54 41.42-85.68 117.37-185.17 8.07-281.54-109.3-96.37-261.03 31.15-326.36-64.53-65.32-95.69 9.92-163.11-135.25-224.097-145.18-60.988-423.07 131.357-482.3 86.217-59.24-45.13 28.22-154.271-12.83-212.422-41.05-58.151-206.1-180.91-266.6-241.14z" fill="#fff"/>
  </g>
  <defs>
    <filter id="filter0_d" x="0" y="0" width="3236" height="3187" filterUnits="userSpaceOnUse" color-interpolation-filters="sRGB">
      <feFlood flood-opacity="0" result="BackgroundImageFix"/>
      <feColorMatrix in="SourceAlpha" values="0 0 0 0 0 0 0 0 0 0 0 0 0 0 0 0 0 0 127 0"/>
      <feOffset dy="49"/>
      <feGaussianBlur stdDeviation="12.5"/>
      <feColorMatrix values="0 0 0 0 0 0 0 0 0 0 0 0 0 0 0 0 0 0 0.25 0"/>
      <feBlend in2="BackgroundImageFix" result="effect1_dropShadow"/>
      <feBlend in="SourceGraphic" in2="effect1_dropShadow" result="shape"/>
    </filter>
  </defs>
</svg>

<svg width="3236" height="3187" viewBox="0 0 3236 3187" fill="none" xmlns="http://www.w3.org/2000/svg">
<g filter="url(#filter0_d)">
<path d="M1884.25 609.168C1823.75 548.938 1999.12 419.53 1792.98 361.065C1517.93 283.057 732.227 0 732.227 0L25 1330.38C25 1330.38 220.583 1552.25 287.318 1625.34C354.052 1698.44 920.219 1957.98 1028.14 1999.64C1136.05 2041.3 1123.38 1994.74 1134.42 2009.44C1145.46 2024.14 1107.44 2071.93 1123.38 2109.91C1139.32 2147.9 1363.04 2317.98 1511.45 2385.4C1659.87 2452.82 1341.21 3006.13 1937.41 3101.15C2533.6 3196.18 2459.43 2690.53 2502 2616.09C2544.57 2541.65 2673.54 2655.42 2740.27 2616.09C2807 2576.76 2798.06 2426.03 2875.44 2370.72C2952.82 2315.41 2977.05 2341.64 3080.82 2306.9C3184.59 2272.15 3231.67 2047.84 3202.48 1995.49C3173.28 1943.13 3091.3 1854.45 3075.97 1824.67C3060.91 1795.41 3054.01 1777.11 3036.56 1730.78L3035.59 1728.22C3017.42 1680 3058.1 1632.36 3099.52 1546.68C3140.94 1461 3216.89 1361.51 3107.59 1265.14C2998.29 1168.77 2846.56 1296.29 2781.23 1200.61C2715.91 1104.92 2791.15 1037.5 2645.98 976.513C2500.8 915.525 2222.91 1107.87 2163.68 1062.73C2104.44 1017.6 2191.9 908.459 2150.85 850.308C2109.8 792.157 1944.75 669.398 1884.25 609.168Z" fill="white"/>
</g>
<defs>
<filter id="filter0_d" x="0" y="0" width="3236" height="3187" filterUnits="userSpaceOnUse" color-interpolation-filters="sRGB">
<feFlood flood-opacity="0" result="BackgroundImageFix"/>
<feColorMatrix in="SourceAlpha" type="matrix" values="0 0 0 0 0 0 0 0 0 0 0 0 0 0 0 0 0 0 127 0"/>
<feOffset dy="49"/>
<feGaussianBlur stdDeviation="12.5"/>
<feColorMatrix type="matrix" values="0 0 0 0 0 0 0 0 0 0 0 0 0 0 0 0 0 0 0.25 0"/>
<feBlend mode="normal" in2="BackgroundImageFix" result="effect1_dropShadow"/>
<feBlend mode="normal" in="SourceGraphic" in2="effect1_dropShadow" result="shape"/>
</filter>
</defs>
</svg>
